data/icons/hicolor/symbolic/apps/io.github.flattool.Warehouse-symbolic.svg

<svg fill="none" height="16" viewBox="0 0 16 16" width="16" xmlns="http://www.w3.org/2000/svg"><g fill="#000"><path d="m4 8h5v1h-5z"/><path d="m4 10h3v1h-3z"/><path clip-rule="evenodd" d="m4 3c-.55228 0-1 .44772-1 1s.44772 1 1 1h3v-2zm5 0v2h3c.5523 0 1-.44772 1-1s-.4477-1-1-1zm0 4h-2-3c-.35064 0-.68722-.06015-1-.17071v5.17071c0 .5523.44772 1 1 1h8c.5523 0 1-.4477 1-1v-5.17071c-.3128.11056-.6494.17071-1 .17071zm-5-6c-1.65685 0-3 1.34315-3 3v8c0 1.6569 1.34315 3 3 3h8c1.6569 0 3-1.3431 3-3v-8c0-1.65685-1.3431-3-3-3z" fill-rule="evenodd"/></g></svg>

<svg width="16" height="16" viewBox="0 0 16 16" fill="none" xmlns="http://www.w3.org/2000/svg">
<path d="M4 8H9V9H4V8Z" fill="black"/>
<path d="M4 10H7V11H4V10Z" fill="black"/>
<path fill-rule="evenodd" clip-rule="evenodd" d="M4 3C3.44772 3 3 3.44772 3 4C3 4.55228 3.44772 5 4 5H7V3H4ZM9 3V5H12C12.5523 5 13 4.55228 13 4C13 3.44772 12.5523 3 12 3H9ZM9 7H7H4C3.64936 7 3.31278 6.93985 3 6.82929V12C3 12.5523 3.44772 13 4 13H12C12.5523 13 13 12.5523 13 12V6.82929C12.6872 6.93985 12.3506 7 12 7H9ZM4 1C2.34315 1 1 2.34315 1 4V12C1 13.6569 2.34315 15 4 15H12C13.6569 15 15 13.6569 15 12V4C15 2.34315 13.6569 1 12 1H4Z" fill="black"/>
</svg>
